!!!COM:	la Rue, Pierre de
!!!CDT:	~1452///-1518/11/20
!!!OPR:	Missa Ave Maria
!!!ONM:	1
!!!OTL:	Kyrie
!!!AGN:	Mass; Kyrie
!!!SCT:	Rue1004a
!!!SCA:	Rue1004a
!!!voices:	4
!!!voices-OPR:	4(-5)
**kern	**kern	**kern	**kern
*staff4	*staff3	*staff2	*staff1
*Ivox	*Ivox	*Ivox	*Ivox
*I"Bassus	*I"Tenor	*I"Contra	*I"Discantus
*I'B	*I'T	*I'C	*I'D
*>[A,B,C]	*>[A,B,C]	*>[A,B,C]	*>[A,B,C]
*>A	*>A	*>A	*>A
*clefF4	*clefGv2	*clefGv2	*clefG2
*k[]	*k[]	*k[]	*k[]
*M2/1	*M2/1	*M2/1	*M2/1
*met(C)	*met(C)	*met(C)	*met(C)
!!section: Kyrie I
!!!OMD: Kyrie I
=1-	=1-	=1-	=1-
0r	0r	0c	0r
=2	=2	=2	=2
0r	0r	1G	0r
.	.	1A	.
=3	=3	=3	=3
0r	0r	2r	0cc
.	.	2A/	.
.	.	2.c\	.
.	.	4d\	.
=4	=4	=4	=4
0r	0r	1e	1g
.	.	[1f	1a
=5	=5	=5	=5
0r	0r	1f]	2r
.	.	.	2a/
.	.	1f	2.cc\
.	.	.	4dd\
=6	=6	=6	=6
0r	0r	2e\	1ee
.	.	1a	.
.	.	.	[1ff
.	.	2d\	.
=7	=7	=7	=7
0F	0r	2a\	1ff]
.	.	2d\	.
.	.	1a	1ff
=8	=8	=8	=8
1C	0r	2g\	1ee
.	.	2e\	.
[1D	.	1f	2r
.	.	.	[2a/
=9	=9	=9	=9
1D]	0r	2d\	2a/]
.	.	1f	2a/
2r	.	.	2b-i\
2D\	.	4e\	[2a/
.	.	4d\	.
=10	=10	=10	=10
2.F\	0c	2.a\	2a/]
.	.	.	1cc
4G\	.	4g\	.
1A	.	2e\	.
.	.	2f\	4b-i\
.	.	.	4a/
=11	=11	=11	=11
0B-i	0G	2.g\	2dd\
.	.	.	2g/
.	.	4f\	.
.	.	2d\	1dd
.	.	[2g\	.
=12	=12	=12	=12
1A	1A	2g\]	1cc
.	.	2f\	.
2G\	2r	2g\	2r
2A\	2A/	2e\	[2cc\
=13	=13	=13	=13
1F	2.c\	1a	2cc\]
.	.	.	4b\
.	4d\	.	4a/
1E	1e	1g	4cc\
.	.	.	4b\
.	.	.	2ee\
=14	=14	=14	=14
0r	0f	1r	2dd\
.	.	.	2cc\
.	.	1a	1dd
=15	=15	=15	=15
0E	0e	2g\	1ee
.	.	2.g\	.
.	.	.	2r
.	.	4f\	.
.	.	4e\	2b\
.	.	4d\	.
=16	=16	=16	=16
2A\	0r	2c\	2cc\
2G\	.	2.B\	2.dd\
1F	.	.	.
.	.	4A/	4cc\
.	.	2A/	4b\
.	.	.	4a/
=17	=17	=17	=17
2E\	1e	1B	2.g/
1G	.	.	.
.	.	.	4a/
.	2d\	1r	2b\
2E\	2c\	.	[2cc\
=18	=18	=18	=18
1F	1d	2.A/	4cc\]
.	.	.	4b\
.	.	.	2a/
.	.	4B\	.
[1E	1e	2c\	2g/
.	.	[2B\	[2b\
=19	=19	=19	=19
1E]	2r	2B\]	2b\]
.	2e\	4A/	2cc\
.	.	4G/	.
2r	2d\	2B\	2dd\
[2E\	2c\	2E/	[2ee\
=20	=20	=20	=20
2E\]	1B	1e	2ee\]
1G	.	.	2ee\
.	1d	2B\	2dd\
[2D\	.	[2d\	2b\
=21	=21	=21	=21
4D\]	1A	4d\]	2.dd\
4E\	.	4c\	.
4F\	.	2.A/	.
4G\	.	.	4cc\
1A	2r	.	2.a/
.	.	4B\	.
.	[2e\	4c\	.
.	.	4d\	4b\
=22	=22	=22	=22
1E	4e\]	1e	4cc\
.	4d\	.	4dd\
.	2B\	.	2.ee\
2r	1d	1B	.
.	.	.	4dd\
2G\	.	.	2b\
=23	=23	=23	=23
2F\	2A/	2r	4dd\
.	.	.	4cc\
1G	2e\	1B	4b\
.	.	.	4a/
.	2d\	.	2b\
2E\	2c\	[2e\	[2cc\
=24	=24	=24	=24
1F	4d\	2e\]	4cc\]
.	4c\	.	4a/
.	4B\	2d\	1a
.	4A/	.	.
1E	1B	1e	.
.	.	.	2g#i/
=25	=25	=25	=25
0AAl	0Al	0el	0al
!!LO:LB:i:g=z
=26||	=26||	=26||	=26||
*>B	*>B	*>B	*>B
*clefF4	*clefGv2	*clefGv2	*clefG2
*k[]	*k[]	*k[]	*k[]
*M2/1	*M2/1	*M2/1	*M2/1
*met(C2)	*met(C2)	*met(C2)	*met(C2)
!!section: Christe
!!!OMD: Christe
0r	1r	0r	0a
.	1d	.	.
=27.	=27.	=27.	=27.
0r	0d	0r	1a
.	.	.	1b
=28	=28	=28	=28
0r	1e	0r	1cc
.	[1d	.	1dd
=29.	=29.	=29.	=29.
0r	1d]	0r	2r
.	.	.	1a
.	2r	.	.
.	2d\	.	2a/
=30	=30	=30	=30
0r	1d	1r	2b\
.	.	.	1dd
.	1e	[1A	.
.	.	.	2cc#i\
=31.	=31.	=31.	=31.
0D	0d	1A]	0dd
.	.	1A	.
=32	=32	=32	=32
1D	0r	1B	0r
1E	.	1c	.
=33.	=33.	=33.	=33.
1F	0r	1d	0r
2G\	.	2r	.
2F\	.	2A/	.
=34	=34	=34	=34
2G\	0r	1B	0r
2D\	.	.	.
1E	.	1c	.
=35.	=35.	=35.	=35.
1F	1A	0d	0r
2G\	1B	.	.
2B\	.	.	.
=36	=36	=36	=36
[0A	1c	1e	1r
.	2d\	2f\	[1a
.	[2e\	[2a\	.
=37.	=37.	=37.	=37.
0A]	2e\]	2a\]	1a]
.	1d	1g	.
.	.	.	1a
.	2c\	2f\	.
=38	=38	=38	=38
2G\	2d\	2g\	1b
2D\	2f\	2f\	.
1A	1e	2r	1cc
.	.	[2a\	.
=39.	=39.	=39.	=39.
2D\	0d	2a\]	0dd
2F\	.	2a\	.
2G\	.	2b\	.
2B\	.	2g\	.
=40	=40	=40	=40
1A	0r	1a	2r
.	.	.	2cc\
1D	.	2r	2dd\
.	.	2f\	2ff\
=41.	=41.	=41.	=41.
1r	2r	2g\	1ee
.	2c\	2e\	.
2r	2d\	2f\	[1a
2C/	[2e\	[2a\	.
=42	=42	=42	=42
2D\	2e\]	2a\]	1a]
2F\	1d	2f\	.
1E	.	1g	1ee
.	2c#i\	.	.
=43.	=43.	=43.	=43.
1D	1d	[0f	0ff
[1F	2r	.	.
.	[2c\	.	.
=44	=44	=44	=44
2F\]	2c\]	0f]	1.ff
2E\	1c	.	.
1D	.	.	.
.	2B\	.	4ee\
.	.	.	4dd\
=45.	=45.	=45.	=45.
[0C	0c	1r	0ee
.	.	[1g	.
=46	=46	=46	=46
0C]	1G	2g\]	1.ee
.	.	1.e	.
.	1c	.	.
.	.	.	2a/
=47.	=47.	=47.	=47.
2.F\	2r	1f	[0a
.	1d	.	.
4G\	.	.	.
1A	.	1e	.
.	2c\	.	.
=48	=48	=48	=48
0D	2d\	1d	0a]
.	1A	.	.
.	.	2.f\	.
.	2d\	.	.
.	.	4g\	.
=49.	=49.	=49.	=49.
2.F\	2c\	[0a	2r
.	1f	.	1dd
4G\	.	.	.
1A	.	.	.
.	2e\	.	2cc\
=50	=50	=50	=50
1D	2d\	0a]	2dd\
.	4c\	.	1a
.	4B\	.	.
[1F	[1A	.	.
.	.	.	2dd\
=51.	=51.	=51.	=51.
*	*^	*	*
1F]	1A]	1A	1r	2cc\
.	.	.	.	1ff
1C	1e	[1A	1a	.
.	.	.	.	[2ee\
=52	=52	=52	=52	=52
0D	1.f	0A]	[0al	2ee\]
.	.	.	.	1dd
.	2d/	.	.	2b\
*	*v	*v	*	*
=53.	=53.	=53.	=53.
*	*^	*	*
0AAl	0Al\	0el/	0a]	0ccl
*	*v	*v	*	*
!!LO:LB:i:g=z
=54||	=54||	=54||	=54||
*>C	*>C	*>C	*>C
*clefF4	*clefGv2	*clefGv2	*clefG2
*k[]	*k[]	*k[]	*k[]
*M2/1	*M2/1	*M2/1	*M2/1
*met(C)	*met(C)	*met(C)	*met(C)
!!section: Kyrie II
!!!OMD: Kyrie II
0r	0r	1c	0r
.	.	2G/	.
.	.	[2A/	.
=55	=55	=55	=55
0r	0r	4A/]	1cc
.	.	4B\	.
.	.	4c\	.
.	.	4d\	.
.	.	2e\	2g/
.	.	[2f\	[2a/
=56	=56	=56	=56
0r	0r	2f\]	4a/]
.	.	.	4b\
.	.	2f\	4cc\
.	.	.	4dd\
.	.	2e\	2ee\
.	.	2d\	[2ff\
=57	=57	=57	=57
1F	0r	1f	2ff\]
.	.	.	2ff\
2C/	.	2r	2ee\
[2D\	.	[2f\	2dd\
=58	=58	=58	=58
4D\]	1r	2f\]	2.ff\
4E\	.	.	.
4F\	.	2f\	.
4G\	.	.	4ee\
1A	1c	2e\	1cc
.	.	2c\	.
=59	=59	=59	=59
2B-\	2G/	2d\	2r
2A\	2.A/	2c\	1cc
2F\	.	1A	.
.	4B\	.	.
2A\	4c\	.	2cc\
.	4d\	.	.
=60	=60	=60	=60
2G\	2e\	2r	2b\
2.F\	1f	2.A/	2a/
.	.	.	2.cc\
4G\	.	4B\	.
4A\	2f\	4c\	.
4B\	.	4d\	4b\
=61	=61	=61	=61
1c	2e\	2e\	2g/
.	2c\	2A/	1cc
2A\	1f	2r	.
2B\	.	2d\	2dd\
=62	=62	=62	=62
2c\	1e	1c	2.ee\
1A	.	.	.
.	.	.	4dd\
.	1r	2A/	2cc\
2G\	.	2B\	2b\
=63	=63	=63	=63
2A\	1e	4c\	1ee
.	.	4B\	.
2E\	.	4A/	.
.	.	4G/	.
[1F	2d\	1A	[1a
.	2c\	.	.
=64	=64	=64	=64
1F]	1d	2r	1a]
.	.	2A/	.
1E	[1e	2B\	2r
.	.	2c\	2g/
=65	=65	=65	=65
2r	1e]	2G/	2b\
2A\	.	2c\	2cc\
2G\	1r	2B\	2dd\
2E\	.	2G/	[2ee\
=66	=66	=66	=66
1G	2r	2.B\	4ee\]
.	.	.	4dd\
.	2e\	.	1b
.	.	4c\	.
2G\	2d\	1d	.
[2D\	2B\	.	[2dd\
=67	=67	=67	=67
2D\]	1d	1A	4dd\]
.	.	.	4cc\
1D	.	.	2.a/
.	1A	2d\	.
.	.	.	4b\
2A\	.	[2e\	2cc\
=68	=68	=68	=68
2G\	1e	4e\]	2b\
.	.	4f\	.
2E\	.	1g	2.g/
1G	2d\	.	.
.	.	.	4a/
.	2B\	2g\	2b\
=69	=69	=69	=69
1D	2.d\	2f\	2a/
.	.	2d\	2dd\
.	4c\	.	.
2r	2A/	2.f\	2cc\
[2D\	[2d\	.	[2ff\
.	.	4g\	.
=70	=70	=70	=70
2D\]	2d\]	1a	2ff\]
2A\	2c\	.	1ee
2B-\	1f	1r	.
4F\	.	.	[2dd\
4G\	.	.	.
=71	=71	=71	=71
1A	1e	1a	4dd\]
.	.	.	4cc\
.	.	.	2cc\
2D\	1d	2f\	1dd
[2G\	.	[2g\	.
=72	=72	=72	=72
4G\]	1r	2g\]	2b\
4F\	.	.	.
2A\	.	2e\	2cc\
[1E	2r	[1e	2b\
.	2B\	.	[2g/
=73	=73	=73	=73
1E]	2c\	0e]	2g/]
.	1B	.	2.ee\
2r	.	.	.
.	.	.	4dd\
2A\	[2e\	.	2cc\
=74	=74	=74	=74
2G\	4e\]	2r	2b\
.	4d\	.	.
2A\	2c\	2a\	2.ee\
1E	2B\	2.g\	.
.	.	.	4dd\
.	[2e\	.	4cc\
.	.	4f\	4b\
=75	=75	=75	=75
2r	4e\]	2e\	4cc\
.	4d\	.	4b\
1D	2B\	2d\	2.dd\
.	2.d\	2a\	.
.	.	.	4cc\
[2G\	.	2g\	4b\
.	4c\	.	4a/
=76	=76	=76	=76
4G\]	2B\	1e	4b\
4F\	.	.	4a/
2A\	2A/	.	2cc\
2E\	2.e\	2r	4b\
.	.	.	4a/
2C/	.	2e\	[2a/
.	4d\	.	.
=77	=77	=77	=77
2D\	1B	2f\	2a/]
2E\	.	2e\	2g/
2F\	2r	2c\	2a/
[2E\	[2e\	[2g\	2b\
=78	=78	=78	=78
2E\]	4e\]	2g\]	2cc\
.	4d\	.	.
2D\	4B\	2f\	2dd\
.	4d\	.	.
[1E	2c\	1e	4g/
.	.	.	4a/
.	4B\	.	4b\
.	4A/	.	4cc\
=79	=79	=79	=79
0E]	4G/	[0el	4b\
.	4A/	.	4e/
.	4B\	.	1a
.	4c\	.	.
.	4B\	.	.
.	4A/	.	.
.	2B\	.	2g#i/
=80	=80	=80	=80
0AAl	0Al	0e]	0al
==	==	==	==
*-	*-	*-	*-
!!!RDF**kern: l=long note in original notation
!!!RDF**kern: i=editorial accidental
!!!ENC:	Chris Gage 12-02-2012
!!!END:	2013/05/24/
!!!EED:	Jesse Rodin
!!!EEV:	2013/07/19/
!!!ONB:	Translated from MusicXML and edited on 2013/07/19/ by Craig Sapp
!!muse2ps: T^@{OPR}^u^@{ONM}{. }@{OTL}^C^@{COM}^i2I150v85,85,85,150Q16
